shader_type canvas_item;

uniform vec2 size = vec2(0.0);
uniform vec2 center1 = vec2(0.0);
uniform vec2 center2 = vec2(0.0);
uniform float time1 : hint_range(0.0, 1.0) = 0.0;
uniform float time2 : hint_range(0.0, 1.0) = 0.0;
uniform float width1 : hint_range(0.0, 0.5) = 0.05;
uniform float width2 : hint_range(0.0, 0.5) = 0.1;
uniform float corner_radius : hint_range(0.0, 1.0) = 0.0;
uniform float glow : hint_range(0.0, 10.0) = 0.0;
uniform vec4 color : source_color = vec4(1.0);

// --- AÑADIDO: Opacidad Base ---
// 0.0 = Invisible (solo efectos), 1.0 = Sólido, 0.3 = Semitransparente
uniform float background_opacity : hint_range(0.0, 1.0) = 0.0; 
// -----------------------------

float rounded_box(vec2 p, vec2 b, float r) {
    vec2 d = abs(p) - b + r;
    return min(max(d.x, d.y), 0.0) + length(max(d, 0.0)) - r;
}

float capsule(vec2 p, float r, float len) {
    p.x = abs(p.x) - len/2.0;
    p.x = max(p.x, 0.0);
    return length(p) - r;
}

void fragment() {
    float aspect_ratio = size.x / size.y;
    vec2 uv = UV - vec2(0.5);
    uv.x *= aspect_ratio;
    
    float capsule_distance;
    
    if (corner_radius == 0.0) {
        vec2 rect_size = vec2(aspect_ratio * 0.5, 0.5);
        capsule_distance = rounded_box(uv, rect_size, 0.0);
    } else if (corner_radius == 1.0) {
        float capsule_radius = 0.5;
        float capsule_length = aspect_ratio - 1.0;
        capsule_distance = capsule(uv, capsule_radius, capsule_length);
    } else {
        float radius_factor = corner_radius;
        float actual_radius = 0.5 * radius_factor;
        vec2 rect_size = vec2(aspect_ratio * 0.5, 0.5);
        capsule_distance = rounded_box(uv, rect_size, actual_radius);
    }
    
    bool in_capsule = capsule_distance <= 0.0;
    
    float glow_alpha = 0.0;
    if (glow > 0.0) {
        float glow_distance = -capsule_distance;
        float glow_falloff = smoothstep(0.0, width2, glow_distance);
        glow_alpha = (1.0 - glow_falloff) * color.a * glow;
        glow_alpha *= step(0.0, glow_distance);
    }
    
    vec2 center1_uv = (UV - center1);
    center1_uv.x *= aspect_ratio;
    float center1_d = length(center1_uv);
    
    vec2 center2_uv = (UV - center2);
    center2_uv.x *= aspect_ratio;
    float center2_d = length(center2_uv);
    
    float max_center1_radius = max(aspect_ratio, 1.0) * 0.8;
    
    float outer_radius = 0.1 + (max_center1_radius - 0.1) * time1;
    float inner_radius_factor = mix(0.1, 1.2, time1);
    float inner_radius = outer_radius * inner_radius_factor;
    
    float ring = smoothstep(inner_radius - 0.20, inner_radius + 0.20, center1_d) - 
                 smoothstep(outer_radius - 0.20, outer_radius + 0.20, center1_d);
    
    float circle2_blur = smoothstep(center2_d - 0.2, center2_d + 0.2, 0.1 + (max_center1_radius - 0.1) * time2 - 0.2);
    
    bool in_edge_area = abs(capsule_distance) <= width1 && in_capsule;
    
    if (in_capsule) {
        float circle1_alpha = max(ring - max(time1, 0.1), 0.0);
        float circle2_alpha = in_edge_area ? circle2_blur : circle2_blur * 0.30;
        
        // --- CAMBIO: Cálculo de Alfa ---
        // Tomamos el máximo entre los efectos y la opacidad base
        float effects_alpha = max(circle1_alpha, circle2_alpha);
        float final_alpha = max(effects_alpha, background_opacity);
        
        // Multiplicamos por el alpha del color original
        final_alpha *= color.a;
        // ------------------------------

        vec3 final_color = color.rgb;
        vec4 base_color = vec4(final_color, final_alpha);
        vec4 glow_layer = vec4(color.rgb, glow_alpha);
        
        COLOR = base_color + glow_layer;
    } else {
        COLOR = vec4(color.rgb, glow_alpha);
    }
}